X: 515
T:Three hand jig
M:6/8
L:1/8
R:Jig
N:Posted to the woodenflute mailing list May 2002
D:Cathal McConnell's 'Lough Erne's Shore'
Z:Andrew Pickering
K:ADor
e2A ABd|e2d B2d|e2A B2A|G2A Bcd|
e2A ABd|e2d B2d|efe e2d|c2B A3:|
e2a aba|e2f g2d|e2a aba|g2e d^cd|
e2a aba|e2f g2d|efe e2d|c2B A3:|

